data/icons/ui/check-confirmed-symbolic.svg

<?xml version="1.0" encoding="UTF-8" standalone="no"?>
<svg
   height="16px"
   viewBox="0 0 16 16"
   width="16px"
   version="1.1"
   id="svg12"
   sodipodi:docname="check-round-outline-whole-symbolic.svg"
   inkscape:version="1.3.2 (091e20ef0f, 2023-11-25)"
   xmlns:inkscape="http://www.inkscape.org/namespaces/inkscape"
   xmlns:sodipodi="http://sodipodi.sourceforge.net/DTD/sodipodi-0.dtd"
   xmlns="http://www.w3.org/2000/svg"
   xmlns:svg="http://www.w3.org/2000/svg">
  <defs
     id="defs12" />
  <sodipodi:namedview
     id="namedview12"
     pagecolor="#ffffff"
     bordercolor="#000000"
     borderopacity="0.25"
     inkscape:showpageshadow="2"
     inkscape:pageopacity="0.0"
     inkscape:pagecheckerboard="0"
     inkscape:deskcolor="#d1d1d1"
     inkscape:zoom="21.75"
     inkscape:cx="6.8505747"
     inkscape:cy="11.83908"
     inkscape:window-width="1920"
     inkscape:window-height="1011"
     inkscape:window-x="0"
     inkscape:window-y="0"
     inkscape:window-maximized="1"
     inkscape:current-layer="svg12" />
  <filter
     id="a"
     height="1"
     width="1"
     x="0"
     y="0">
    <feColorMatrix
       color-interpolation-filters="sRGB"
       values="0 0 0 0 1 0 0 0 0 1 0 0 0 0 1 0 0 0 1 0"
       id="feColorMatrix1" />
  </filter>
  <mask
     id="b">
    <g
       filter="url(#a)"
       id="g1">
      <path
         d="m -1.6 -1.6 h 19.2 v 19.2 h -19.2 z"
         fill-opacity="0.5"
         id="path1" />
    </g>
  </mask>
  <clipPath
     id="c">
    <path
       d="m 0 0 h 1600 v 1200 h -1600 z"
       id="path2" />
  </clipPath>
  <mask
     id="d">
    <g
       filter="url(#a)"
       id="g3">
      <path
         d="m -1.6 -1.6 h 19.2 v 19.2 h -19.2 z"
         fill-opacity="0.7"
         id="path3" />
    </g>
  </mask>
  <clipPath
     id="e">
    <path
       d="m 0 0 h 1600 v 1200 h -1600 z"
       id="path4" />
  </clipPath>
  <mask
     id="f">
    <g
       filter="url(#a)"
       id="g5">
      <path
         d="m -1.6 -1.6 h 19.2 v 19.2 h -19.2 z"
         fill-opacity="0.35"
         id="path5" />
    </g>
  </mask>
  <clipPath
     id="g">
    <path
       d="m 0 0 h 1600 v 1200 h -1600 z"
       id="path6" />
  </clipPath>
  <g
     mask="url(#b)"
     id="g8">
    <g
       clip-path="url(#c)"
       transform="matrix(1 0 0 1 -160 -80)"
       id="g7">
      <path
         d="m 550 182 c -0.351562 0.003906 -0.695312 0.101562 -1 0.28125 v 3.4375 c 0.304688 0.179688 0.648438 0.277344 1 0.28125 c 1.105469 0 2 -0.894531 2 -2 s -0.894531 -2 -2 -2 z m 0 5 c -0.339844 0 -0.679688 0.058594 -1 0.175781 v 6.824219 h 4 v -4 c 0 -1.65625 -1.34375 -3 -3 -3 z m 0 0"
         id="path7" />
    </g>
  </g>
  <g
     mask="url(#d)"
     id="g10">
    <g
       clip-path="url(#e)"
       transform="matrix(1 0 0 1 -160 -80)"
       id="g9">
      <path
         d="m 569 182 v 4 c 1.105469 0 2 -0.894531 2 -2 s -0.894531 -2 -2 -2 z m 0 5 v 7 h 3 v -4 c 0 -1.65625 -1.34375 -3 -3 -3 z m 0 0"
         id="path8" />
    </g>
  </g>
  <g
     mask="url(#f)"
     id="g12">
    <g
       clip-path="url(#g)"
       transform="matrix(1 0 0 1 -160 -80)"
       id="g11">
      <path
         d="m 573 182.269531 v 3.449219 c 0.613281 -0.355469 0.996094 -1.007812 1 -1.71875 c 0 -0.714844 -0.382812 -1.375 -1 -1.730469 z m 0 4.90625 v 6.824219 h 2 v -4 c 0 -1.269531 -0.800781 -2.402344 -2 -2.824219 z m 0 0"
         id="path10" />
    </g>
  </g>
  <path
     id="path12"
     d="M 8 1 A 7 7 0 0 0 1 8 A 7 7 0 0 0 8 15 A 7 7 0 0 0 15 8 A 7 7 0 0 0 8 1 z M 11.164062 5.859375 C 11.804688 5.90625 12.097656 6.6835945 11.640625 7.140625 L 8 10.78125 C 7.7070313 11.074219 7.2304687 11.074219 6.9375 10.78125 L 4.7617188 8.671875 C 4.0546885 7.9609387 5.1171885 6.8984387 5.8242188 7.609375 L 7.46875 9.1875 L 10.578125 6.078125 C 10.734375 5.9257812 10.945313 5.84375 11.164062 5.859375 z " />
</svg>

<svg xmlns="http://www.w3.org/2000/svg" width="16" height="16"><filter id="a" width="1" height="1" x="0" y="0"><feColorMatrix color-interpolation-filters="sRGB" values="0 0 0 0 1 0 0 0 0 1 0 0 0 0 1 0 0 0 1 0"/></filter><mask id="b"><g filter="url(#a)"><path fill-opacity=".5" d="M-1.6-1.6h19.2v19.2H-1.6z"/></g></mask><clipPath id="c"><path d="M0 0h1600v1200H0z"/></clipPath><mask id="d"><g filter="url(#a)"><path fill-opacity=".7" d="M-1.6-1.6h19.2v19.2H-1.6z"/></g></mask><clipPath id="e"><path d="M0 0h1600v1200H0z"/></clipPath><mask id="f"><g filter="url(#a)"><path fill-opacity=".35" d="M-1.6-1.6h19.2v19.2H-1.6z"/></g></mask><clipPath id="g"><path d="M0 0h1600v1200H0z"/></clipPath><g mask="url(#b)"><g clip-path="url(#c)" transform="translate(-160 -80)"><path d="M550 182a2 2 0 0 0-1 .281v3.438c.305.18.648.277 1 .281a2 2 0 1 0 0-4m0 5c-.34 0-.68.059-1 .176V194h4v-4a3 3 0 0 0-3-3m0 0"/></g></g><g mask="url(#d)"><g clip-path="url(#e)" transform="translate(-160 -80)"><path d="M569 182v4a2 2 0 1 0 0-4m0 5v7h3v-4a3 3 0 0 0-3-3m0 0"/></g></g><g mask="url(#f)"><g clip-path="url(#g)" transform="translate(-160 -80)"><path d="M573 182.27v3.449a2 2 0 0 0 1-1.719c0-.715-.383-1.375-1-1.73m0 4.906V194h2v-4c0-1.27-.8-2.402-2-2.824m0 0"/></g></g><path d="M8 1a7 7 0 0 0-7 7 7 7 0 0 0 7 7 7 7 0 0 0 7-7 7 7 0 0 0-7-7m3.164 4.86c.64.046.934.824.477 1.28L8 10.782a.75.75 0 0 1-1.062 0l-2.176-2.11c-.707-.71.355-1.773 1.062-1.062L7.47 9.188l3.11-3.11a.76.76 0 0 1 .585-.219"/></svg>
